; generated by Slic3r 1.3.0-dev on 2017-11-07 at 20:40:10

; external perimeters extrusion width = 0.76mm (5.53mm^3/s)
; perimeters extrusion width = 0.80mm (11.70mm^3/s)
; infill extrusion width = 0.96mm (17.11mm^3/s)
; solid infill extrusion width = 0.96mm (5.70mm^3/s)
; top infill extrusion width = 0.96mm (5.70mm^3/s)

M190 S65 ; set bed temperature and wait for it to be reached
G90 ; absolute positioning - this line was added in case Cura doesn't include it by default
M82 ; set extruder to absolute mode - this line was added in case Cura doesn't include it by default (may not be needed)
G28 ; home all axes
; The lines below are to prep the nozzle before a print begins
M109 S225 ;
G1 Z0.2 F1200 ; raise nozzle 0.2mm
G92 E0 ; reset extrusion distance
G1 Y10 ; move Y-Axis (bed) 10mm to prep for purge
G1 X100 E12 F600 ; move X-carriage 100mm while purging 12mm of filament
G92 E0 ; reset extrusion distance
; Filament gcode

G21 ; set units to millimeters
G90 ; use absolute coordinates
M82 ; use absolute distances for extrusion
G92 E0
M106 S102
G1 Z0.300 F7200.000
G1 E-3.00000 F2400.00000
G92 E0
G1 X89.936 Y75.852 F7200.000
G1 E3.00000 F2400.00000
G1 F1800
G1 X90.852 Y74.936 E3.16164
G1 X109.148 Y74.936 E5.44362
G1 X110.064 Y75.852 E5.60526
G1 X110.064 Y94.148 E7.88723
G1 X109.148 Y95.064 E8.04887
G1 X90.852 Y95.064 E10.33085
G1 X89.936 Y94.148 E10.49249
G1 X89.936 Y75.972 E12.75950
G1 X90.936 Y76.266 F7200.000
G1 F1800
G1 X91.266 Y75.936 E12.81781
G1 X108.734 Y75.936 E14.99646
G1 X109.064 Y76.266 E15.05478
G1 X109.064 Y93.734 E17.23342
G1 X108.734 Y94.064 E17.29174
G1 X91.266 Y94.064 E19.47039
G1 X90.936 Y93.734 E19.52870
G1 X90.936 Y76.386 E21.69239
G1 E18.69239 F2400.00000
G92 E0
G1 X108.020 Y93.020 F7200.000
G1 E3.00000 F2400.00000
G1 F1800
G1 X91.980 Y93.020 E4.79177
G1 X91.980 Y76.980 E6.58355
G1 X108.020 Y76.980 E8.37532
G1 X108.020 Y92.900 E10.15369
G1 X107.247 Y92.813 F7200.000
G1 X107.124 Y92.124 F7200.000
G1 F1800
G1 X92.876 Y92.124 E11.74537
G1 X92.876 Y77.876 E13.33705
G1 X107.124 Y77.876 E14.92873
G1 X107.124 Y92.004 E16.50701
G1 E13.50701 F2400.00000
G92 E0
G1 X102.727 Y87.536 F7200.000
G1 E3.00000 F2400.00000
G1 F1800
G1 X102.344 Y87.903 E3.05924
G1 X101.820 Y88.258 E3.12995
G1 X101.243 Y88.519 E3.20065
G1 X100.631 Y88.678 E3.27135
G1 X100.000 Y88.732 E3.34206
G1 X99.369 Y88.678 E3.41276
G1 X98.804 Y88.531 E3.47798
G1 X98.183 Y88.260 E3.55375
G1 X97.656 Y87.903 E3.62481
G1 X97.199 Y87.465 E3.69551
G1 X96.822 Y86.957 E3.76622
G1 X96.537 Y86.391 E3.83692
G1 X96.352 Y85.786 E3.90762
G1 X96.278 Y85.207 E3.97285
G1 X96.298 Y84.529 E4.04861
G1 X96.432 Y83.907 E4.11967
G1 X96.668 Y83.320 E4.19037
G1 X97.000 Y82.781 E4.26108
G1 X97.418 Y82.306 E4.33178
G1 X97.910 Y81.908 E4.40249
G1 X98.463 Y81.600 E4.47319
G1 X99.060 Y81.389 E4.54390
G1 X99.684 Y81.282 E4.61460
G1 X100.316 Y81.282 E4.68530
G1 X100.940 Y81.389 E4.75601
G1 X101.537 Y81.600 E4.82671
G1 X102.090 Y81.908 E4.89742
G1 X102.544 Y82.275 E4.96264
G1 X102.999 Y82.778 E5.03841
G1 X103.332 Y83.320 E5.10946
G1 X103.568 Y83.907 E5.18017
G1 X103.702 Y84.526 E5.25087
G1 X103.728 Y85.158 E5.32158
G1 X103.648 Y85.786 E5.39228
G1 X103.463 Y86.391 E5.46298
G1 X103.178 Y86.957 E5.53369
G1 X102.812 Y87.451 E5.60245
G1 X102.894 Y88.040 F7200.000
G1 X103.347 Y88.183 F7200.000
G1 F1800
G1 X102.909 Y88.603 E5.67021
G1 X102.258 Y89.043 E5.75794
G1 X101.543 Y89.366 E5.84568
G1 X100.783 Y89.564 E5.93341
G1 X100.000 Y89.631 E6.02115
G1 X99.217 Y89.564 E6.10888
G1 X98.511 Y89.380 E6.19048
G1 X97.749 Y89.048 E6.28328
G1 X97.091 Y88.603 E6.37202
G1 X96.524 Y88.059 E6.45975
G1 X96.057 Y87.428 E6.54749
G1 X95.703 Y86.727 E6.63522
G1 X95.473 Y85.976 E6.72296
G1 X95.381 Y85.251 E6.80456
G1 X95.405 Y84.421 E6.89735
G1 X95.572 Y83.644 E6.98610
G1 X95.865 Y82.915 E7.07383
G1 X96.277 Y82.246 E7.16157
G1 X96.796 Y81.657 E7.24930
G1 X97.407 Y81.164 E7.33704
G1 X98.093 Y80.780 E7.42477
G1 X98.833 Y80.519 E7.51250
G1 X99.607 Y80.386 E7.60024
G1 X100.393 Y80.386 E7.68797
G1 X101.167 Y80.519 E7.77571
G1 X101.907 Y80.780 E7.86344
G1 X102.593 Y81.164 E7.95118
G1 X103.161 Y81.622 E8.03278
G1 X103.718 Y82.239 E8.12557
G1 X104.135 Y82.915 E8.21432
G1 X104.428 Y83.644 E8.30205
G1 X104.593 Y84.412 E8.38979
G1 X104.626 Y85.197 E8.47752
G1 X104.527 Y85.976 E8.56526
G1 X104.297 Y86.727 E8.65299
G1 X103.943 Y87.428 E8.74072
G1 X103.434 Y88.100 E8.83495
G1 X104.762 Y87.450 F7200.000
G1 F1800
G1 X106.577 Y85.635 E9.13178
G1 X106.577 Y84.324 E9.28343
G1 X105.155 Y85.746 E9.51597
G1 X105.176 Y85.583 E9.53493
G1 X105.136 Y84.646 E9.64339
G1 X105.102 Y84.487 E9.66215
G1 X106.577 Y83.012 E9.90338
G1 X106.577 Y81.701 E10.05503
G1 X104.827 Y83.451 E10.34126
G1 X104.589 Y82.859 E10.41508
G1 X104.406 Y82.561 E10.45551
G1 X106.577 Y80.390 E10.81064
G1 X106.577 Y79.079 E10.96230
G1 X103.861 Y81.795 E11.40653
G1 X103.430 Y81.318 E11.48081
G1 X103.207 Y81.138 E11.51404
G1 X105.921 Y78.423 E11.95803
G1 X104.610 Y78.423 E12.10969
G1 X102.439 Y80.594 E12.46483
G1 X101.929 Y80.310 E12.53232
G1 X101.547 Y80.175 E12.57920
G1 X103.299 Y78.423 E12.86571
G1 X101.988 Y78.423 E13.01737
G1 X100.506 Y79.905 E13.25974
G1 X100.121 Y79.839 E13.30491
G1 X99.260 Y79.839 E13.40441
G1 X100.676 Y78.423 E13.63598
G1 X99.365 Y78.423 E13.78763
G1 X97.535 Y80.253 E14.08694
G1 X97.374 Y80.310 E14.10666
G1 X96.555 Y80.767 E14.21513
G1 X95.826 Y81.356 E14.32359
G1 X95.206 Y82.060 E14.43205
G1 X94.714 Y82.859 E14.54051
G1 X94.570 Y83.218 E14.58522
G1 E11.58522 F2400.00000
G92 E0
G1 X93.423 Y79.120 F7200.000
G1 E3.00000 F2400.00000
G1 F1800
G1 X94.120 Y78.423 E3.11394
G1 X95.431 Y78.423 E3.26559
G1 X93.423 Y80.431 E3.59402
G1 X93.423 Y81.742 E3.74567
G1 X96.742 Y78.423 E4.28857
G1 X98.054 Y78.423 E4.44022
G1 X93.423 Y83.054 E5.19759
G1 X93.423 Y84.365 E5.34924
G1 X95.267 Y82.521 E5.65082
G1 X95.061 Y83.033 E5.71458
G1 X94.861 Y83.964 E5.82476
G1 X94.852 Y84.247 E5.85751
G1 X93.423 Y85.676 E6.09127
G1 X93.423 Y86.988 E6.24292
G1 X94.903 Y85.507 E6.48506
G1 X94.943 Y85.817 E6.52115
G1 X95.169 Y86.553 E6.61024
G1 X93.423 Y88.299 E6.89574
G1 X93.423 Y89.610 E7.04740
G1 X95.587 Y87.446 E7.40134
G1 X95.640 Y87.551 E7.41491
G1 X96.130 Y88.214 E7.51031
G1 X93.423 Y90.921 E7.95312
G1 X93.423 Y91.577 E8.02895
G1 X94.079 Y91.577 E8.10478
G1 X96.786 Y88.869 E8.54766
G1 X96.875 Y88.954 E8.56178
G1 X97.554 Y89.413 E8.65662
G1 X95.390 Y91.577 E9.01057
G1 X96.701 Y91.577 E9.16222
G1 X98.449 Y89.830 E9.44801
G1 X98.565 Y89.881 E9.46272
G1 X99.482 Y90.107 E9.57197
G1 X98.012 Y91.577 E9.81235
G1 X99.324 Y91.577 E9.96400
G1 X100.754 Y90.147 E10.19797
G1 X101.283 Y90.102 E10.25931
G1 X102.190 Y89.865 E10.36777
G1 X102.476 Y89.736 E10.40403
G1 X100.635 Y91.577 E10.70513
G1 X101.946 Y91.577 E10.85679
G1 X106.577 Y86.946 E11.61415
G1 X106.577 Y88.258 E11.76580
G1 X103.258 Y91.577 E12.30870
G1 X104.569 Y91.577 E12.46035
G1 X106.577 Y89.569 E12.78878
G1 X106.577 Y90.880 E12.94043
G1 X105.880 Y91.577 E13.05439
M104 S220 ; set temperature
M140 S60 ; set bed temperature
G1 Z0.620 F7200.000
G1 X103.150 Y87.978 F7200.000
G1 F1200
G1 X102.730 Y88.381 E13.11105
G1 X102.119 Y88.793 E13.18276
G1 X101.448 Y89.097 E13.25447
G1 X100.734 Y89.283 E13.32618
G1 X100.000 Y89.345 E13.39789
G1 X99.266 Y89.283 E13.46959
G1 X98.552 Y89.097 E13.54130
G1 X97.881 Y88.793 E13.61301
G1 X97.270 Y88.381 E13.68472
G1 X96.738 Y87.871 E13.75643
G1 X96.300 Y87.278 E13.82813
G1 X95.968 Y86.620 E13.89984
G1 X95.752 Y85.915 E13.97155
G1 X95.659 Y85.184 E14.04326
G1 X95.690 Y84.448 E14.11497
G1 X95.845 Y83.728 E14.18668
G1 X96.120 Y83.044 E14.25838
G1 X96.506 Y82.416 E14.33009
G1 X96.993 Y81.863 E14.40180
G1 X97.567 Y81.400 E14.47351
G1 X98.210 Y81.040 E14.54522
G1 X98.905 Y80.795 E14.61693
G1 X99.631 Y80.670 E14.68863
G1 X100.369 Y80.670 E14.76034
G1 X101.095 Y80.795 E14.83205
G1 X101.790 Y81.040 E14.90376
G1 X102.433 Y81.400 E14.97547
G1 X103.007 Y81.863 E15.04717
G1 X103.494 Y82.416 E15.11888
G1 X103.880 Y83.044 E15.19059
G1 X104.155 Y83.728 E15.26230
G1 X104.310 Y84.448 E15.33401
G1 X104.341 Y85.184 E15.40572
G1 X104.248 Y85.915 E15.47742
G1 X104.032 Y86.620 E15.54913
G1 X103.700 Y87.278 E15.62084
G1 X103.237 Y87.895 E15.69587
G1 X102.658 Y87.464 F7200.000
G1 F1200
G1 X102.281 Y87.825 E15.74387
G1 X101.771 Y88.170 E15.80052
G1 X101.210 Y88.424 E15.85717
G1 X100.614 Y88.579 E15.91382
G1 X100.000 Y88.631 E15.97046
G1 X99.386 Y88.579 E16.02711
G1 X98.790 Y88.424 E16.08376
G1 X98.229 Y88.170 E16.14041
G1 X97.719 Y87.825 E16.19706
G1 X97.274 Y87.399 E16.25371
G1 X96.908 Y86.904 E16.31036
G1 X96.630 Y86.354 E16.36701
G1 X96.450 Y85.765 E16.42366
G1 X96.372 Y85.154 E16.48031
G1 X96.398 Y84.539 E16.53696
G1 X96.528 Y83.937 E16.59361
G1 X96.757 Y83.365 E16.65026
G1 X97.080 Y82.841 E16.70691
G1 X97.487 Y82.378 E16.76356
G1 X97.967 Y81.991 E16.82020
G1 X98.504 Y81.691 E16.87685
G1 X99.085 Y81.486 E16.93350
G1 X99.692 Y81.382 E16.99015
G1 X100.308 Y81.382 E17.04680
G1 X100.915 Y81.486 E17.10345
G1 X101.496 Y81.691 E17.16010
G1 X102.033 Y81.991 E17.21675
G1 X102.513 Y82.378 E17.27340
G1 X102.920 Y82.841 E17.33005
G1 X103.243 Y83.365 E17.38670
G1 X103.472 Y83.937 E17.44335
G1 X103.602 Y84.539 E17.50000
G1 X103.628 Y85.154 E17.55665
G1 X103.550 Y85.765 E17.61330
G1 X103.370 Y86.354 E17.66994
G1 X103.092 Y86.904 E17.72659
G1 X102.741 Y87.378 E17.78086
G1 X102.822 Y87.960 F7200.000
G1 X107.409 Y92.409 F7200.000
G1 F3000
G1 X92.591 Y92.409 E19.22253
G1 X92.591 Y77.591 E20.66421
G1 X107.409 Y77.591 E22.10588
G1 X107.409 Y92.289 E23.53587
G1 X108.120 Y93.120 F7200.000
G1 F1500
G1 X91.880 Y93.120 E25.02954
G1 X91.880 Y76.880 E26.52321
G1 X108.120 Y76.880 E28.01687
G1 X108.120 Y93.000 E29.49950
G1 X107.347 Y92.913 F7200.000
G1 X106.913 Y85.316 F7200.000
G1 F1200
G1 X104.515 Y82.918 E29.92044
G1 X104.618 Y83.174 E29.95469
G1 X104.802 Y84.029 E30.06331
G1 X104.824 Y84.546 E30.12757
G1 X106.913 Y86.635 E30.49423
G1 X106.913 Y87.955 E30.65801
G1 X104.728 Y85.770 E31.04149
G1 X104.472 Y86.608 E31.15030
G1 X104.397 Y86.758 E31.17107
G1 X106.913 Y89.274 E31.61279
G1 X106.913 Y90.593 E31.77657
G1 X103.921 Y87.602 E32.30175
G1 X103.558 Y88.093 E32.37764
G1 X103.320 Y88.320 E32.41840
G1 X106.913 Y91.913 E33.04902
G1 X105.593 Y91.913 E33.21280
G1 X102.600 Y88.919 E33.73833
G1 X102.201 Y89.189 E33.79810
G1 X101.752 Y89.391 E33.85916
G1 X104.274 Y91.913 E34.30179
G1 X102.955 Y91.913 E34.46557
G1 X100.759 Y89.717 E34.85103
G1 X100.556 Y89.770 E34.87697
G1 X99.684 Y89.844 E34.98560
G1 X99.555 Y89.833 E35.00171
G1 X101.635 Y91.913 E35.36682
G1 X100.316 Y91.913 E35.53060
G1 X93.087 Y91.282 F7200.000
G1 F1200
G1 X93.718 Y91.913 E35.64141
G1 X95.038 Y91.913 E35.80519
G1 X93.087 Y89.962 E36.14761
G1 X93.087 Y88.643 E36.31139
G1 X96.357 Y91.913 E36.88544
G1 X97.677 Y91.913 E37.04922
G1 X93.087 Y87.323 E37.85489
G1 X93.087 Y86.004 E38.01867
G1 X98.996 Y91.913 E39.05595
G1 X100.316 Y91.913 E39.21973
G1 X98.572 Y90.169 E39.52585
G1 X97.799 Y89.820 E39.63108
G1 X97.074 Y89.330 E39.73970
G1 X96.442 Y88.724 E39.84833
G1 X95.922 Y88.021 E39.95695
G1 X95.528 Y87.239 E40.06558
G1 X95.478 Y87.075 E40.08690
G1 X93.087 Y84.684 E40.50656
G1 X93.087 Y83.365 E40.67034
G1 X95.165 Y85.442 E41.03502
G1 X95.198 Y84.660 E41.13221
G1 X95.287 Y84.246 E41.18486
G1 X93.087 Y82.045 E41.57106
G1 X93.087 Y80.726 E41.73484
G1 X95.607 Y83.246 E42.17715
G1 X95.708 Y82.993 E42.21100
G1 X96.076 Y82.396 E42.29804
G1 X93.087 Y79.407 E42.82274
G1 X93.087 Y78.087 E42.98652
G1 X96.673 Y81.673 E43.61598
G1 X96.745 Y81.591 E43.62960
G1 X97.390 Y81.070 E43.73240
G1 X94.407 Y78.087 E44.25608
G1 X95.726 Y78.087 E44.41986
G1 X98.237 Y80.598 E44.86057
G1 X99.015 Y80.322 E44.96310
G1 X99.242 Y80.284 E44.99164
G1 X97.045 Y78.087 E45.37722
G1 X98.365 Y78.087 E45.54100
G1 X100.452 Y80.175 E45.90745
G1 X100.753 Y80.175 E45.94476
G1 X101.616 Y80.322 E46.05339
G1 X102.086 Y80.489 E46.11531
G1 X99.684 Y78.087 E46.53689
G1 X101.004 Y78.087 E46.70067
G1 X106.913 Y83.996 E47.73795
G1 X106.913 Y82.677 E47.90173
G1 X102.323 Y78.087 E48.70739
G1 X103.643 Y78.087 E48.87117
G1 X106.913 Y81.357 E49.44522
G1 X106.913 Y80.038 E49.60900
G1 X104.962 Y78.087 E49.95142
G1 X106.282 Y78.087 E50.11520
G1 X106.913 Y78.718 E50.22600
G1 Z0.940 F7200.000
G1 X103.172 Y87.957 F7200.000
G1 F1200
G1 X102.730 Y88.381 E50.28557
G1 X102.119 Y88.793 E50.35728
G1 X101.448 Y89.097 E50.42899
G1 X100.734 Y89.283 E50.50069
G1 X100.000 Y89.345 E50.57240
G1 X99.266 Y89.283 E50.64411
G1 X98.552 Y89.097 E50.71582
G1 X97.881 Y88.793 E50.78753
G1 X97.270 Y88.381 E50.85924
G1 X96.738 Y87.871 E50.93094
G1 X96.300 Y87.278 E51.00265
G1 X95.968 Y86.620 E51.07436
G1 X95.752 Y85.915 E51.14607
G1 X95.659 Y85.184 E51.21778
G1 X95.690 Y84.448 E51.28948
G1 X95.845 Y83.728 E51.36119
G1 X96.120 Y83.044 E51.43290
G1 X96.506 Y82.416 E51.50461
G1 X96.993 Y81.863 E51.57632
G1 X97.567 Y81.400 E51.64803
G1 X98.210 Y81.040 E51.71973
G1 X98.905 Y80.795 E51.79144
G1 X99.631 Y80.670 E51.86315
G1 X100.369 Y80.670 E51.93486
G1 X101.095 Y80.795 E52.00657
G1 X101.477 Y80.930 E52.04600
G1 X101.790 Y81.040 E52.07828
G1 X102.433 Y81.400 E52.14998
G1 X103.007 Y81.863 E52.22169
G1 X103.494 Y82.416 E52.29340
G1 X103.880 Y83.044 E52.36511
G1 X104.155 Y83.728 E52.43682
G1 X104.310 Y84.448 E52.50852
G1 X104.341 Y85.184 E52.58023
G1 X104.248 Y85.915 E52.65194
G1 X104.032 Y86.620 E52.72365
G1 X103.700 Y87.278 E52.79536
G1 X103.258 Y87.874 E52.86752
G1 X102.680 Y87.444 F7200.000
G1 F1200
G1 X102.281 Y87.825 E52.91827
G1 X101.771 Y88.170 E52.97491
G1 X101.210 Y88.424 E53.03156
G1 X100.614 Y88.579 E53.08821
G1 X100.000 Y88.631 E53.14486
G1 X99.386 Y88.579 E53.20151
G1 X98.790 Y88.424 E53.25816
G1 X98.229 Y88.170 E53.31481
G1 X97.719 Y87.825 E53.37146
G1 X97.274 Y87.399 E53.42811
G1 X96.908 Y86.904 E53.48476
G1 X96.630 Y86.354 E53.54141
G1 X96.450 Y85.765 E53.59806
G1 X96.372 Y85.154 E53.65471
G1 X96.398 Y84.539 E53.71136
G1 X96.528 Y83.937 E53.76801
G1 X96.757 Y83.365 E53.82465
G1 X97.080 Y82.841 E53.88130
G1 X97.487 Y82.378 E53.93795
G1 X97.967 Y81.991 E53.99460
G1 X98.504 Y81.691 E54.05125
G1 X99.085 Y81.486 E54.10790
G1 X99.692 Y81.382 E54.16455
G1 X100.308 Y81.382 E54.22120
G1 X100.915 Y81.486 E54.27785
G1 X101.496 Y81.691 E54.33450
G1 X102.033 Y81.991 E54.39115
G1 X102.513 Y82.378 E54.44780
G1 X102.920 Y82.841 E54.50445
G1 X103.243 Y83.365 E54.56110
G1 X103.472 Y83.937 E54.61775
G1 X103.602 Y84.539 E54.67439
G1 X103.628 Y85.154 E54.73104
G1 X103.550 Y85.765 E54.78769
G1 X103.370 Y86.354 E54.84434
G1 X103.092 Y86.904 E54.90099
G1 X102.759 Y87.354 E54.95251
G1 X102.768 Y87.710 F7200.000
G1 X107.409 Y92.409 F7200.000
G1 F3000
G1 X92.591 Y92.409 E56.39418
G1 X92.591 Y77.591 E57.83586
G1 X107.409 Y77.591 E59.27753
G1 X107.409 Y92.289 E60.70752
G1 X108.120 Y93.120 F7200.000
G1 F1500
G1 X91.880 Y93.120 E62.20119
G1 X91.880 Y76.880 E63.69486
G1 X108.120 Y76.880 E65.18852
G1 X108.120 Y93.000 E66.67115
G1 X107.347 Y92.913 F7200.000
G1 X101.491 Y91.913 F7200.000
G1 F3600
G1 X106.913 Y86.491 E67.58048
G1 X106.913 Y78.087 E68.57699
G1 X103.327 Y81.673 E69.17834
G1 X103.255 Y81.591 E69.19135
G1 X102.574 Y81.041 E69.29512
G1 X101.810 Y80.614 E69.39890
G1 X100.985 Y80.322 E69.50267
G1 X100.122 Y80.175 E69.60645
G1 X99.247 Y80.175 E69.71022
G1 X98.384 Y80.322 E69.81399
G1 X97.559 Y80.614 E69.91777
G1 X96.795 Y81.041 E70.02154
G1 X96.114 Y81.591 E70.12531
G1 X95.536 Y82.248 E70.22909
G1 X95.077 Y82.993 E70.33286
G1 X94.751 Y83.805 E70.43663
G1 X94.567 Y84.660 E70.54041
G1 X94.530 Y85.535 E70.64418
G1 X94.641 Y86.403 E70.74796
G1 X94.897 Y87.239 E70.85173
G1 X95.291 Y88.021 E70.95550
G1 X95.811 Y88.724 E71.05928
