; generated by Slic3r 1.3.0-dev on 2017-11-05 at 23:37:06

; external perimeters extrusion width = 0.76mm (2.90mm^3/s)
; perimeters extrusion width = 0.80mm (6.13mm^3/s)
; infill extrusion width = 0.96mm (8.89mm^3/s)
; solid infill extrusion width = 0.96mm (2.96mm^3/s)
; top infill extrusion width = 0.96mm (2.96mm^3/s)

M190 S65 ; set bed temperature and wait for it to be reached
G90 ; absolute positioning - this line was added in case Cura doesn't include it by default
M82 ; set extruder to absolute mode - this line was added in case Cura doesn't include it by default (may not be needed)
G28 ; home all axes
; The lines below are to prep the nozzle before a print begins
M109 S225 ;
G1 Z0.2 F1200 ; raise nozzle 0.2mm
G92 E0 ; reset extrusion distance
G1 Y10 ; move Y-Axis (bed) 10mm to prep for purge
G1 X100 E12 F600 ; move X-carriage 100mm while purging 12mm of filament
G92 E0 ; reset extrusion distance
; Filament gcode

G21 ; set units to millimeters
G90 ; use absolute coordinates
M82 ; use absolute distances for extrusion
G92 E0
M106 S102
G1 Z0.300 F7200.000
G1 E-3.00000 F2400.00000
G92 E0
G1 X87.636 Y39.857 F7200.000
G1 E3.00000 F2400.00000
G1 F1800
G1 X87.343 Y39.564 E3.05166
G1 X79.352 Y39.564 E4.04831
G1 X79.207 Y39.419 E4.07387
G1 X78.793 Y39.419 E4.12553
G1 X78.648 Y39.564 E4.15109
G1 X74.352 Y39.564 E4.68691
G1 X73.436 Y38.648 E4.84855
G1 X73.436 Y29.352 E6.00800
G1 X74.352 Y28.436 E6.16964
G1 X78.648 Y28.436 E6.70545
G1 X78.793 Y28.581 E6.73101
G1 X79.207 Y28.581 E6.78268
G1 X79.352 Y28.436 E6.80824
G1 X120.648 Y28.436 E11.95890
G1 X120.793 Y28.581 E11.98446
G1 X121.207 Y28.581 E12.03612
G1 X121.352 Y28.436 E12.06168
G1 X125.648 Y28.436 E12.59750
G1 X126.564 Y29.352 E12.75914
G1 X126.564 Y38.648 E13.91858
G1 X125.648 Y39.564 E14.08023
G1 X121.352 Y39.564 E14.61604
G1 X121.207 Y39.419 E14.64160
G1 X120.793 Y39.419 E14.69327
G1 X120.648 Y39.564 E14.71883
G1 X112.657 Y39.564 E15.71547
G1 X112.364 Y39.857 E15.76713
G1 X112.364 Y53.648 E17.48719
G1 X111.448 Y54.564 E17.64883
G1 X107.152 Y54.564 E18.18465
G1 X106.236 Y53.648 E18.34629
G1 X106.236 Y39.857 E20.06634
G1 X105.943 Y39.564 E20.11801
G1 X94.057 Y39.564 E21.60042
G1 X93.764 Y39.857 E21.65209
G1 X93.764 Y53.648 E23.37214
G1 X92.848 Y54.564 E23.53378
G1 X88.552 Y54.564 E24.06960
G1 X87.636 Y53.648 E24.23124
G1 X87.636 Y39.977 E25.93633
G1 X88.636 Y38.857 F7200.000
G1 F1800
G1 X88.343 Y38.564 E25.98799
G1 X79.766 Y38.564 E27.05770
G1 X79.207 Y38.005 E27.15632
G1 X78.793 Y38.005 E27.20799
G1 X78.234 Y38.564 E27.30661
G1 X74.766 Y38.564 E27.73910
G1 X74.436 Y38.234 E27.79741
G1 X74.436 Y29.766 E28.85353
G1 X74.766 Y29.436 E28.91185
G1 X78.234 Y29.436 E29.34434
G1 X78.793 Y29.995 E29.44296
G1 X79.207 Y29.995 E29.49463
G1 X79.766 Y29.436 E29.59325
G1 X120.234 Y29.436 E34.64058
G1 X120.793 Y29.995 E34.73921
G1 X121.207 Y29.995 E34.79087
G1 X121.766 Y29.436 E34.88949
G1 X125.234 Y29.436 E35.32198
G1 X125.564 Y29.766 E35.38030
G1 X125.564 Y38.234 E36.43642
G1 X125.234 Y38.564 E36.49473
G1 X121.766 Y38.564 E36.92722
G1 X121.207 Y38.005 E37.02585
G1 X120.793 Y38.005 E37.07751
G1 X120.234 Y38.564 E37.17613
G1 X111.657 Y38.564 E38.24584
G1 X111.364 Y38.857 E38.29750
G1 X111.364 Y53.234 E40.09062
G1 X111.034 Y53.564 E40.14893
G1 X107.566 Y53.564 E40.58143
G1 X107.236 Y53.234 E40.63974
G1 X107.236 Y38.857 E42.43286
G1 X106.943 Y38.564 E42.48452
G1 X93.057 Y38.564 E44.21639
G1 X92.764 Y38.857 E44.26805
G1 X92.764 Y53.234 E46.06117
G1 X92.434 Y53.564 E46.11948
G1 X88.966 Y53.564 E46.55198
G1 X88.636 Y53.234 E46.61029
G1 X88.636 Y38.977 E48.38844
G1 E45.38844 F2400.00000
G92 E0
G1 X87.636 Y68.857 F7200.000
G1 E3.00000 F2400.00000
G1 F1800
G1 X87.343 Y68.564 E3.05166
G1 X79.352 Y68.564 E4.04831
G1 X79.207 Y68.419 E4.07387
G1 X78.793 Y68.419 E4.12553
G1 X78.648 Y68.564 E4.15109
G1 X74.352 Y68.564 E4.68691
G1 X73.436 Y67.648 E4.84855
G1 X73.436 Y58.352 E6.00800
G1 X74.352 Y57.436 E6.16964
G1 X78.648 Y57.436 E6.70545
G1 X78.793 Y57.581 E6.73101
G1 X79.207 Y57.581 E6.78268
G1 X79.352 Y57.436 E6.80824
G1 X120.648 Y57.436 E11.95890
G1 X120.793 Y57.581 E11.98446
G1 X121.207 Y57.581 E12.03612
G1 X121.352 Y57.436 E12.06168
G1 X125.648 Y57.436 E12.59750
G1 X126.564 Y58.352 E12.75914
G1 X126.564 Y67.648 E13.91858
G1 X125.648 Y68.564 E14.08023
G1 X121.352 Y68.564 E14.61604
G1 X121.207 Y68.419 E14.64160
G1 X120.793 Y68.419 E14.69327
G1 X120.648 Y68.564 E14.71883
G1 X112.657 Y68.564 E15.71547
G1 X112.364 Y68.857 E15.76713
G1 X112.364 Y82.648 E17.48719
G1 X111.448 Y83.564 E17.64883
G1 X107.152 Y83.564 E18.18465
G1 X106.236 Y82.648 E18.34629
G1 X106.236 Y68.857 E20.06634
G1 X105.943 Y68.564 E20.11801
G1 X94.057 Y68.564 E21.60042
G1 X93.764 Y68.857 E21.65209
G1 X93.764 Y82.648 E23.37214
G1 X92.848 Y83.564 E23.53378
G1 X88.552 Y83.564 E24.06960
G1 X87.636 Y82.648 E24.23124
G1 X87.636 Y68.977 E25.93633
G1 X88.636 Y67.857 F7200.000
G1 F1800
G1 X88.343 Y67.564 E25.98799
G1 X79.766 Y67.564 E27.05770
G1 X79.207 Y67.005 E27.15632
G1 X78.793 Y67.005 E27.20799
G1 X78.234 Y67.564 E27.30661
G1 X74.766 Y67.564 E27.73910
G1 X74.436 Y67.234 E27.79741
G1 X74.436 Y58.766 E28.85353
G1 X74.766 Y58.436 E28.91185
G1 X78.234 Y58.436 E29.34434
G1 X78.793 Y58.995 E29.44296
G1 X79.207 Y58.995 E29.49463
G1 X79.766 Y58.436 E29.59325
G1 X120.234 Y58.436 E34.64058
G1 X120.793 Y58.995 E34.73921
G1 X121.207 Y58.995 E34.79087
G1 X121.766 Y58.436 E34.88949
G1 X125.234 Y58.436 E35.32198
G1 X125.564 Y58.766 E35.38030
G1 X125.564 Y67.234 E36.43642
G1 X125.234 Y67.564 E36.49473
G1 X121.766 Y67.564 E36.92722
G1 X121.207 Y67.005 E37.02585
G1 X120.793 Y67.005 E37.07751
G1 X120.234 Y67.564 E37.17613
G1 X111.657 Y67.564 E38.24584
G1 X111.364 Y67.857 E38.29750
G1 X111.364 Y82.234 E40.09062
G1 X111.034 Y82.564 E40.14893
G1 X107.566 Y82.564 E40.58143
G1 X107.236 Y82.234 E40.63974
G1 X107.236 Y67.857 E42.43286
G1 X106.943 Y67.564 E42.48452
G1 X93.057 Y67.564 E44.21639
G1 X92.764 Y67.857 E44.26805
G1 X92.764 Y82.234 E46.06117
G1 X92.434 Y82.564 E46.11948
G1 X88.966 Y82.564 E46.55198
G1 X88.636 Y82.234 E46.61029
G1 X88.636 Y67.977 E48.38844
G1 E45.38844 F2400.00000
G92 E0
G1 X87.636 Y97.857 F7200.000
G1 E3.00000 F2400.00000
G1 F1800
G1 X87.343 Y97.564 E3.05166
G1 X79.352 Y97.564 E4.04831
G1 X79.207 Y97.419 E4.07387
G1 X78.793 Y97.419 E4.12553
G1 X78.648 Y97.564 E4.15109
G1 X74.352 Y97.564 E4.68691
G1 X73.436 Y96.648 E4.84855
G1 X73.436 Y87.352 E6.00800
G1 X74.352 Y86.436 E6.16964
G1 X78.648 Y86.436 E6.70545
G1 X78.793 Y86.581 E6.73101
G1 X79.207 Y86.581 E6.78268
G1 X79.352 Y86.436 E6.80824
G1 X120.648 Y86.436 E11.95890
G1 X120.793 Y86.581 E11.98446
G1 X121.207 Y86.581 E12.03612
G1 X121.352 Y86.436 E12.06168
G1 X125.648 Y86.436 E12.59750
G1 X126.564 Y87.352 E12.75914
G1 X126.564 Y96.648 E13.91858
G1 X125.648 Y97.564 E14.08023
G1 X121.352 Y97.564 E14.61604
G1 X121.207 Y97.419 E14.64160
G1 X120.793 Y97.419 E14.69327
G1 X120.648 Y97.564 E14.71883
G1 X112.657 Y97.564 E15.71547
G1 X112.364 Y97.857 E15.76713
G1 X112.364 Y111.648 E17.48719
G1 X111.448 Y112.564 E17.64883
G1 X107.152 Y112.564 E18.18465
G1 X106.236 Y111.648 E18.34629
G1 X106.236 Y97.857 E20.06634
G1 X105.943 Y97.564 E20.11801
G1 X94.057 Y97.564 E21.60042
G1 X93.764 Y97.857 E21.65209
G1 X93.764 Y111.648 E23.37214
G1 X92.848 Y112.564 E23.53378
G1 X88.552 Y112.564 E24.06960
G1 X87.636 Y111.648 E24.23124
G1 X87.636 Y97.977 E25.93633
G1 X88.636 Y96.857 F7200.000
G1 F1800
G1 X88.343 Y96.564 E25.98799
G1 X79.766 Y96.564 E27.05770
G1 X79.207 Y96.005 E27.15632
G1 X78.793 Y96.005 E27.20799
G1 X78.234 Y96.564 E27.30661
G1 X74.766 Y96.564 E27.73910
G1 X74.436 Y96.234 E27.79741
G1 X74.436 Y87.766 E28.85353
G1 X74.766 Y87.436 E28.91185
G1 X78.234 Y87.436 E29.34434
G1 X78.793 Y87.995 E29.44296
G1 X79.207 Y87.995 E29.49463
G1 X79.766 Y87.436 E29.59325
G1 X120.234 Y87.436 E34.64058
G1 X120.793 Y87.995 E34.73921
G1 X121.207 Y87.995 E34.79087
G1 X121.766 Y87.436 E34.88949
G1 X125.234 Y87.436 E35.32198
G1 X125.564 Y87.766 E35.38030
G1 X125.564 Y96.234 E36.43642
G1 X125.234 Y96.564 E36.49473
G1 X121.766 Y96.564 E36.92722
G1 X121.207 Y96.005 E37.02585
G1 X120.793 Y96.005 E37.07751
G1 X120.234 Y96.564 E37.17613
G1 X111.657 Y96.564 E38.24584
G1 X111.364 Y96.857 E38.29750
G1 X111.364 Y111.234 E40.09062
G1 X111.034 Y111.564 E40.14893
G1 X107.566 Y111.564 E40.58143
G1 X107.236 Y111.234 E40.63974
G1 X107.236 Y96.857 E42.43286
G1 X106.943 Y96.564 E42.48452
G1 X93.057 Y96.564 E44.21639
G1 X92.764 Y96.857 E44.26805
G1 X92.764 Y111.234 E46.06117
G1 X92.434 Y111.564 E46.11948
G1 X88.966 Y111.564 E46.55198
G1 X88.636 Y111.234 E46.61029
G1 X88.636 Y96.977 E48.38844
G1 E45.38844 F2400.00000
G92 E0
G1 X87.636 Y126.857 F7200.000
G1 E3.00000 F2400.00000
G1 F1800
G1 X87.343 Y126.564 E3.05166
G1 X79.352 Y126.564 E4.04831
G1 X79.207 Y126.419 E4.07387
G1 X78.793 Y126.419 E4.12553
G1 X78.648 Y126.564 E4.15109
G1 X74.352 Y126.564 E4.68691
G1 X73.436 Y125.648 E4.84855
G1 X73.436 Y116.352 E6.00800
G1 X74.352 Y115.436 E6.16964
G1 X78.648 Y115.436 E6.70545
G1 X78.793 Y115.581 E6.73101
G1 X79.207 Y115.581 E6.78268
G1 X79.352 Y115.436 E6.80824
G1 X120.648 Y115.436 E11.95890
G1 X120.793 Y115.581 E11.98446
G1 X121.207 Y115.581 E12.03612
G1 X121.352 Y115.436 E12.06168
G1 X125.648 Y115.436 E12.59750
G1 X126.564 Y116.352 E12.75914
G1 X126.564 Y125.648 E13.91858
G1 X125.648 Y126.564 E14.08023
G1 X121.352 Y126.564 E14.61604
G1 X121.207 Y126.419 E14.64160
G1 X120.793 Y126.419 E14.69327
G1 X120.648 Y126.564 E14.71883
G1 X112.657 Y126.564 E15.71547
G1 X112.364 Y126.857 E15.76713
G1 X112.364 Y140.648 E17.48719
G1 X111.448 Y141.564 E17.64883
G1 X107.152 Y141.564 E18.18465
G1 X106.236 Y140.648 E18.34629
G1 X106.236 Y126.857 E20.06634
G1 X105.943 Y126.564 E20.11801
G1 X94.057 Y126.564 E21.60042
G1 X93.764 Y126.857 E21.65209
G1 X93.764 Y140.648 E23.37214
G1 X92.848 Y141.564 E23.53378
G1 X88.552 Y141.564 E24.06960
G1 X87.636 Y140.648 E24.23124
G1 X87.636 Y126.977 E25.93633
G1 X88.636 Y125.857 F7200.000
G1 F1800
G1 X88.343 Y125.564 E25.98799
G1 X79.766 Y125.564 E27.05770
G1 X79.207 Y125.005 E27.15632
G1 X78.793 Y125.005 E27.20799
G1 X78.234 Y125.564 E27.30661
G1 X74.766 Y125.564 E27.73910
G1 X74.436 Y125.234 E27.79741
G1 X74.436 Y116.766 E28.85353
G1 X74.766 Y116.436 E28.91185
G1 X78.234 Y116.436 E29.34434
G1 X78.793 Y116.995 E29.44296
G1 X79.207 Y116.995 E29.49463
G1 X79.766 Y116.436 E29.59325
G1 X120.234 Y116.436 E34.64058
G1 X120.793 Y116.995 E34.73921
G1 X121.207 Y116.995 E34.79087
G1 X121.766 Y116.436 E34.88949
G1 X125.234 Y116.436 E35.32198
G1 X125.564 Y116.766 E35.38030
G1 X125.564 Y125.234 E36.43642
G1 X125.234 Y125.564 E36.49473
G1 X121.766 Y125.564 E36.92722
G1 X121.207 Y125.005 E37.02585
G1 X120.793 Y125.005 E37.07751
G1 X120.234 Y125.564 E37.17613
G1 X111.657 Y125.564 E38.24584
G1 X111.364 Y125.857 E38.29750
G1 X111.364 Y140.234 E40.09062
G1 X111.034 Y140.564 E40.14893
G1 X107.566 Y140.564 E40.58143
G1 X107.236 Y140.234 E40.63974
G1 X107.236 Y125.857 E42.43286
G1 X106.943 Y125.564 E42.48452
G1 X93.057 Y125.564 E44.21639
G1 X92.764 Y125.857 E44.26805
G1 X92.764 Y140.234 E46.06117
G1 X92.434 Y140.564 E46.11948
G1 X88.966 Y140.564 E46.55198
G1 X88.636 Y140.234 E46.61029
G1 X88.636 Y125.977 E48.38844
G1 E45.38844 F2400.00000
G92 E0
G1 X110.320 Y37.520 F7200.000
G1 E3.00000 F2400.00000
G1 F1800
G1 X110.320 Y52.520 E4.67560
G1 X108.280 Y52.520 E4.90348
G1 X108.280 Y37.520 E6.57908
G1 X91.720 Y37.520 E8.42894
G1 X91.720 Y52.520 E10.10454
G1 X89.680 Y52.520 E10.33242
G1 X89.680 Y37.520 E12.00802
G1 X80.480 Y37.520 E13.03572
G1 X80.480 Y30.480 E13.82214
G1 X119.520 Y30.480 E18.18316
G1 X119.520 Y37.520 E18.96958
G1 X110.440 Y37.520 E19.98387
G1 X109.539 Y37.693 F7200.000
G1 E16.98387 F2400.00000
G92 E0
G1 X118.624 Y36.624 F7200.000
G1 E3.00000 F2400.00000
G1 F1800
G1 X81.376 Y36.624 E7.16093
G1 X81.376 Y31.376 E7.74725
G1 X118.624 Y31.376 E11.90819
G1 X118.624 Y36.504 E12.48110
G1 X117.380 Y36.077 F7200.000
G1 F1800
G1 X118.077 Y35.380 E12.59383
G1 X118.077 Y34.083 E12.74223
G1 X116.083 Y36.077 E13.06483
G1 X114.786 Y36.077 E13.21322
G1 X118.077 Y32.786 E13.74569
G1 X118.077 Y31.923 E13.84443
G1 X117.643 Y31.923 E13.89408
G1 X113.489 Y36.077 E14.56619
G1 X112.192 Y36.077 E14.71459
G1 X116.346 Y31.923 E15.38669
G1 X115.049 Y31.923 E15.53509
G1 X110.895 Y36.077 E16.20719
G1 X109.597 Y36.077 E16.35559
G1 X113.752 Y31.923 E17.02769
G1 X112.454 Y31.923 E17.17609
G1 X108.300 Y36.077 E17.84819
G1 X107.003 Y36.077 E17.99659
G1 X111.157 Y31.923 E18.66869
G1 X109.860 Y31.923 E18.81709
G1 X105.706 Y36.077 E19.48919
G1 X104.409 Y36.077 E19.63759
G1 X108.563 Y31.923 E20.30970
G1 X107.266 Y31.923 E20.45809
G1 X103.112 Y36.077 E21.13020
G1 X101.814 Y36.077 E21.27860
G1 X105.969 Y31.923 E21.95070
G1 X104.671 Y31.923 E22.09910
G1 X100.517 Y36.077 E22.77120
G1 X99.220 Y36.077 E22.91960
G1 X103.374 Y31.923 E23.59170
G1 X102.077 Y31.923 E23.74010
G1 X97.923 Y36.077 E24.41220
G1 X96.626 Y36.077 E24.56060
G1 X100.780 Y31.923 E25.23270
G1 X99.483 Y31.923 E25.38110
G1 X95.329 Y36.077 E26.05320
G1 X94.031 Y36.077 E26.20160
G1 X98.186 Y31.923 E26.87370
G1 X96.888 Y31.923 E27.02210
G1 X92.734 Y36.077 E27.69421
G1 X91.437 Y36.077 E27.84260
G1 X95.591 Y31.923 E28.51471
G1 X94.294 Y31.923 E28.66311
G1 X90.140 Y36.077 E29.33521
G1 X88.843 Y36.077 E29.48361
G1 X92.997 Y31.923 E30.15571
G1 X91.700 Y31.923 E30.30411
G1 X87.546 Y36.077 E30.97621
G1 X86.248 Y36.077 E31.12461
G1 X90.403 Y31.923 E31.79671
G1 X89.106 Y31.923 E31.94511
G1 X84.951 Y36.077 E32.61721
G1 X83.654 Y36.077 E32.76561
G1 X87.808 Y31.923 E33.43771
G1 X86.511 Y31.923 E33.58611
G1 X82.357 Y36.077 E34.25821
G1 X81.923 Y36.077 E34.30788
G1 X81.923 Y35.214 E34.40661
G1 X85.214 Y31.923 E34.93908
G1 X83.917 Y31.923 E35.08748
G1 X81.923 Y33.917 E35.41008
G1 X81.923 Y32.620 E35.55848
G1 X82.620 Y31.923 E35.67121
G1 E32.67121 F2400.00000
G92 E0
G1 X90.700 Y37.072 F7200.000
G1 E3.00000 F2400.00000
G1 F1800
G1 X90.700 Y52.072 E5.02056
G1 E2.02056 F2400.00000
G92 E0
G1 X109.300 Y52.072 F7200.000
G1 E3.00000 F2400.00000
G1 F1800
G1 X109.300 Y37.072 E5.02057
G1 E2.02057 F2400.00000
G92 E0
G1 X122.480 Y37.520 F7200.000
G1 E3.00000 F2400.00000
G1 F1800
G1 X122.480 Y30.480 E3.78641
G1 X124.520 Y30.480 E4.01430
G1 X124.520 Y37.520 E4.80071
G1 X122.600 Y37.520 E5.01519
G1 X122.555 Y36.724 F7200.000
G1 X123.500 Y37.072 F7200.000
G1 F1800
G1 X123.500 Y30.928 E5.84286
G1 E2.84286 F2400.00000
G92 E0
G1 X77.520 Y37.520 F7200.000
G1 E3.00000 F2400.00000
G1 F1800
G1 X75.480 Y37.520 E3.22788
G1 X75.480 Y30.480 E4.01430
G1 X77.520 Y30.480 E4.24218
G1 X77.520 Y37.400 E5.01519
G1 X76.793 Y37.187 F7200.000
G1 X76.500 Y37.072 F7200.000
G1 F1800
G1 X76.500 Y30.928 E5.84286
G1 E2.84286 F2400.00000
G92 E0
G1 X89.680 Y66.520 F7200.000
G1 E3.00000 F2400.00000
G1 F1800
G1 X80.480 Y66.520 E4.02770
G1 X80.480 Y59.480 E4.81412
G1 X119.520 Y59.480 E9.17514
G1 X119.520 Y66.520 E9.96156
G1 X110.320 Y66.520 E10.98926
G1 X110.320 Y81.520 E12.66485
G1 X108.280 Y81.520 E12.89274
G1 X108.280 Y66.520 E14.56834
G1 X91.720 Y66.520 E16.41820
G1 X91.720 Y81.520 E18.09380
G1 X89.680 Y81.520 E18.32168
G1 X89.680 Y66.640 E19.98387
G1 X89.644 Y65.721 F7200.000
G1 E16.98387 F2400.00000
G92 E0
G1 X81.376 Y65.624 F7200.000
G1 E3.00000 F2400.00000
G1 F1800
G1 X81.376 Y60.376 E3.58632
G1 X118.624 Y60.376 E7.74725
G1 X118.624 Y65.624 E8.33358
G1 X81.496 Y65.624 E12.48110
G1 E9.48110 F2400.00000
G92 E0
G1 X82.620 Y60.923 F7200.000
G1 E3.00000 F2400.00000
G1 F1800
G1 X81.923 Y61.620 E3.11273
G1 X81.923 Y62.917 E3.26113
G1 X83.917 Y60.923 E3.58373
G1 X85.214 Y60.923 E3.73213
G1 X81.923 Y64.214 E4.26460
